X:338
T: Werbung (77), S.214
N: T0227
O: Luxemburg
S: Singendes Volk, Esch-Alzette 1937 posth.]
N: Straen, fff Witry, 13.12.1932
R: Liebeslieder]
M: 2/4
L: 1/8
K: G
D | GGGD | B2BD | G2z
B | GBBB | Bdd2
AAAA | Acc
G | GGGD | B2BD | G2z

